dist/images/dest/icons/header-logo.svg

<svg width="59" height="60" viewBox="0 0 59 60" fill="none" xmlns="http://www.w3.org/2000/svg">
<path d="M25.2557 32.6096H21.5439V50.0386H25.2557V32.6096Z" fill="#CFA672"/>
<path d="M49.5433 13.1634V9.53241H9.03711V13.1634H21.544V20.4255H25.2557V13.1634H29.9357V50.0386H31.5495H33.6475H49.5433V46.3269H33.6475V13.1634H49.5433Z" fill="#CFA672"/>
<path d="M23.4803 28.3331C24.4607 28.3331 25.2554 27.5384 25.2554 26.558C25.2554 25.5776 24.4607 24.7828 23.4803 24.7828C22.4999 24.7828 21.7051 25.5776 21.7051 26.558C21.7051 27.5384 22.4999 28.3331 23.4803 28.3331Z" fill="#CFA672"/>
<path d="M58.5 59.0758H0V0.495117H58.5V59.0758ZM3.63103 55.4448H54.869V4.12615H3.63103V55.4448Z" fill="#CFA672"/>
</svg>

<svg xmlns="http://www.w3.org/2000/svg" width="59" height="60" fill="none"><path fill="#CFA672" d="M25.256 32.61h-3.712v17.429h3.712v-17.43Z"/><path fill="#CFA672" d="M49.543 13.163v-3.63H9.037v3.63h12.507v7.262h3.712v-7.262h4.68V50.04h19.607v-3.712H33.648V13.163h15.895Z"/><path fill="#CFA672" d="M23.48 28.333a1.775 1.775 0 1 0 0-3.55 1.775 1.775 0 0 0 0 3.55Z"/><path fill="#CFA672" d="M58.5 59.076H0V.496h58.5v58.58ZM3.631 55.445h51.238V4.126H3.631v51.319Z"/></svg>
